tenacity-icon-dark.svg

<svg xmlns="http://www.w3.org/2000/svg" xmlns:xlink="http://www.w3.org/1999/xlink" viewBox="0 0 16.933333 16.933334">
  <metadata>
    <rdf:RDF>
      <cc:Work
         rdf:about="">
        <dc:format>image/svg+xml</dc:format>
        <dc:type
           rdf:resource="http://purl.org/dc/dcmitype/StillImage" />
        <cc:license
           rdf:resource="http://creativecommons.org/licenses/by/4.0/" />
      </cc:Work>
      <cc:License
         rdf:about="http://creativecommons.org/licenses/by/4.0/">
        <cc:permits
           rdf:resource="http://creativecommons.org/ns#Reproduction" />
        <cc:permits
           rdf:resource="http://creativecommons.org/ns#Distribution" />
        <cc:requires
           rdf:resource="http://creativecommons.org/ns#Notice" />
        <cc:requires
           rdf:resource="http://creativecommons.org/ns#Attribution" />
        <cc:permits
           rdf:resource="http://creativecommons.org/ns#DerivativeWorks" />
      </cc:License>
    </rdf:RDF>
  </metadata>
  <defs/>
  <defs>
    <linearGradient id="a">
      <stop offset="0" stop-color="#e93c17"/>
      <stop offset="1" stop-color="#ca153e"/>
    </linearGradient>
    <linearGradient id="b" x1="-7.3441615" x2="-31.127453" y1="65.579994" y2="89.363289" gradientTransform="matrix(.71198 0 0 .71198 22.162262 -46.691924)" gradientUnits="userSpaceOnUse" xlink:href="#a"/>
  </defs>
  <path fill="url(#b)" d="M2.1170344 3.7e-7C.9535663 3.7e-7 4e-7.95357467 4e-7 2.1170335V14.8163c0 1.163459.9535659 2.117033 2.117034 2.117033H14.8163c1.163459 0 2.117033-.953574 2.117033-2.117033V2.1170335C16.933333.95357467 15.979759 3.7e-7 14.8163 3.7e-7zm6.35 2.11666653H10.5837v3.1749999h2.116667v2.1166664H15.875v2.1166675h-3.174633v2.1166663H10.5837v3.175H8.4670344v-4.233334h-2.116666V12.7H4.2337015V9.5250007H1.0583334V7.4083332h3.1753681V4.2333334h2.1166669v2.1166667h2.116666z" color="#000" paint-order="markers fill stroke"/>
</svg>

<?xml version="1.0" encoding="UTF-8"?>
<svg version="1.1" viewBox="0 0 16.933 16.933" xmlns="http://www.w3.org/2000/svg" xmlns:cc="http://creativecommons.org/ns#" xmlns:dc="http://purl.org/dc/elements/1.1/" xmlns:rdf="http://www.w3.org/1999/02/22-rdf-syntax-ns#" xmlns:xlink="http://www.w3.org/1999/xlink">
 <metadata>
  <rdf:RDF>
   <cc:Work rdf:about="">
    <dc:format>image/svg+xml</dc:format>
    <dc:type rdf:resource="http://purl.org/dc/dcmitype/StillImage"/>
    <cc:license rdf:resource="http://creativecommons.org/licenses/by/4.0/"/>
   </cc:Work>
   <cc:License rdf:about="http://creativecommons.org/licenses/by/4.0/">
    <cc:permits rdf:resource="http://creativecommons.org/ns#Reproduction"/>
    <cc:permits rdf:resource="http://creativecommons.org/ns#Distribution"/>
    <cc:requires rdf:resource="http://creativecommons.org/ns#Notice"/>
    <cc:requires rdf:resource="http://creativecommons.org/ns#Attribution"/>
    <cc:permits rdf:resource="http://creativecommons.org/ns#DerivativeWorks"/>
   </cc:License>
  </rdf:RDF>
 </metadata>
 <defs>
  <linearGradient id="b" x1="-7.3442" x2="-31.127" y1="65.58" y2="89.363" gradientTransform="matrix(.71198 0 0 .71198 22.162 -46.692)" gradientUnits="userSpaceOnUse">
   <stop stop-color="#e93c17" offset="0"/>
   <stop stop-color="#ca153e" offset="1"/>
  </linearGradient>
 </defs>
 <path d="m2.117 3.7e-7c-1.1635 0-2.117 0.95357-2.117 2.117v12.699c0 1.1635 0.95357 2.117 2.117 2.117h12.699c1.1635 0 2.117-0.95357 2.117-2.117v-12.699c0-1.1635-0.95357-2.117-2.117-2.117zm6.35 2.1167h2.1167v3.175h2.1167v2.1167h3.1746v2.1167h-3.1746v2.1167h-2.1167v3.175h-2.1167v-4.2333h-2.1167v2.1167h-2.1167v-3.175h-3.1754v-2.1167h3.1754v-3.175h2.1167v2.1167h2.1167z" fill="url(#b)" paint-order="markers fill stroke"/>
</svg>
